evolvere-2-blue-mono/apps/24/distributor-logo-arch-linux.svg

<?xml version="1.0" encoding="UTF-8" standalone="no"?>
<!-- Created with Inkscape (http://www.inkscape.org/) -->

<svg
   xmlns:a="http://ns.adobe.com/AdobeSVGViewerExtensions/3.0/"
   xmlns:i="http://ns.adobe.com/AdobeIllustrator/10.0/"
   xmlns:dc="http://purl.org/dc/elements/1.1/"
   xmlns:cc="http://creativecommons.org/ns#"
   xmlns:rdf="http://www.w3.org/1999/02/22-rdf-syntax-ns#"
   xmlns:svg="http://www.w3.org/2000/svg"
   xmlns="http://www.w3.org/2000/svg"
   xmlns:sodipodi="http://sodipodi.sourceforge.net/DTD/sodipodi-0.dtd"
   xmlns:inkscape="http://www.inkscape.org/namespaces/inkscape"
   width="24"
   height="24"
   id="svg2"
   version="1.1"
   inkscape:version="0.48.3.1 r9886"
   sodipodi:docname="distributor-logo-arch-linux.svg"
   inkscape:export-filename="/home/anton/.kde4/share/apps/desktoptheme/appo/icons/nepomuk.png"
   inkscape:export-xdpi="90"
   inkscape:export-ydpi="90">
  <sodipodi:namedview
     id="base"
     pagecolor="#ffffff"
     bordercolor="#666666"
     borderopacity="1.0"
     inkscape:pageopacity="0.0"
     inkscape:pageshadow="2"
     inkscape:zoom="22.627417"
     inkscape:cx="18.676727"
     inkscape:cy="13.493246"
     inkscape:document-units="px"
     inkscape:current-layer="klipper"
     showgrid="true"
     inkscape:window-width="1920"
     inkscape:window-height="1023"
     inkscape:window-x="-10"
     inkscape:window-y="35"
     inkscape:window-maximized="1"
     inkscape:snap-grids="true"
     showguides="true"
     inkscape:guide-bbox="true"
     inkscape:snap-bbox="true"
     inkscape:object-paths="true"
     inkscape:snap-global="false"
     inkscape:bbox-paths="true"
     inkscape:bbox-nodes="true"
     inkscape:snap-bbox-edge-midpoints="true"
     inkscape:snap-bbox-midpoints="true"
     inkscape:snap-intersection-paths="true"
     inkscape:object-nodes="true"
     inkscape:snap-smooth-nodes="true"
     inkscape:snap-midpoints="true"
     inkscape:snap-object-midpoints="true"
     inkscape:snap-center="true">
    <inkscape:grid
       snapvisiblegridlinesonly="true"
       enabled="true"
       visible="true"
       empspacing="5"
       id="grid2818"
       type="xygrid" />
  </sodipodi:namedview>
  <defs
     id="defs4">
    <mask
       maskUnits="userSpaceOnUse"
       x="122.963"
       y="97.149"
       width="576.609"
       height="587.491"
       id="XMLID_23_"
       i:invertMask="false"
       i:clipMask="true">
      <g
         style="filter:url(#Adobe_OpacityMaskFilter)"
         id="g37">
        <radialGradient
           id="XMLID_24_"
           cx="88.977501"
           cy="-20.899401"
           r="673.11609"
           fx="88.977501"
           fy="-20.899401"
           gradientUnits="userSpaceOnUse">
          <stop
             offset="0.309"
             style="stop-color:#FFFFFF"
             id="stop40" />
          <stop
             offset="1"
             style="stop-color:#000000"
             id="stop42" />
          <a:midPointStop
             offset="0.309"
             style="stop-color:#FFFFFF" />
          <a:midPointStop
             offset="0.5"
             style="stop-color:#FFFFFF" />
          <a:midPointStop
             offset="1"
             style="stop-color:#000000" />
        </radialGradient>
        <ellipse
           style="fill:url(#XMLID_24_)"
           sodipodi:ry="349.10599"
           sodipodi:rx="512.93402"
           sodipodi:cy="286.172"
           sodipodi:cx="295.89499"
           i:knockout="Off"
           cx="295.89499"
           cy="286.172"
           rx="512.93402"
           ry="349.10599"
           id="ellipse44" />
      </g>
    </mask>
    <filter
       color-interpolation-filters="sRGB"
       id="Adobe_OpacityMaskFilter"
       filterUnits="userSpaceOnUse"
       x="122.963"
       y="97.149002"
       width="576.60901"
       height="587.49103">
      <feColorMatrix
         type="matrix"
         values="1 0 0 0 0  0 1 0 0 0  0 0 1 0 0  0 0 0 1 0"
         id="feColorMatrix34" />
    </filter>
    <mask
       maskUnits="userSpaceOnUse"
       x="155.705"
       y="461.543"
       width="93.126"
       height="44.813"
       id="XMLID_26_"
       i:invertMask="false"
       i:clipMask="true">
      <g
         style="filter:url(#Adobe_OpacityMaskFilter_1_)"
         id="g75">
        <linearGradient
           id="XMLID_1_"
           gradientUnits="userSpaceOnUse"
           x1="211.7222"
           y1="562.85791"
           x2="200.0733"
           y2="466.75449">
          <stop
             offset="0"
             style="stop-color:#FFFFFF"
             id="stop78" />
          <stop
             offset="1"
             style="stop-color:#000000"
             id="stop80" />
          <a:midPointStop
             offset="0"
             style="stop-color:#FFFFFF" />
          <a:midPointStop
             offset="0.5"
             style="stop-color:#FFFFFF" />
          <a:midPointStop
             offset="1"
             style="stop-color:#000000" />
        </linearGradient>
        <ellipse
           style="fill:url(#XMLID_1_)"
           sodipodi:ry="59.682999"
           sodipodi:rx="80.542"
           sodipodi:cy="495.98801"
           sodipodi:cx="203.617"
           i:knockout="Off"
           cx="203.617"
           cy="495.98801"
           rx="80.542"
           ry="59.682999"
           id="ellipse82" />
      </g>
    </mask>
    <filter
       color-interpolation-filters="sRGB"
       id="Adobe_OpacityMaskFilter_1_"
       filterUnits="userSpaceOnUse"
       x="155.705"
       y="461.543"
       width="93.125999"
       height="44.813">
      <feColorMatrix
         type="matrix"
         values="1 0 0 0 0  0 1 0 0 0  0 0 1 0 0  0 0 0 1 0"
         id="feColorMatrix72" />
    </filter>
    <mask
       maskUnits="userSpaceOnUse"
       x="101.57"
       y="425.034"
       width="156.907"
       height="127.553"
       id="XMLID_2_"
       i:invertMask="false"
       i:clipMask="true">
      <g
         style="filter:url(#Adobe_OpacityMaskFilter_2_)"
         id="g92">
        <linearGradient
           id="XMLID_3_"
           gradientUnits="userSpaceOnUse"
           x1="206.09081"
           y1="397.62061"
           x2="186.92191"
           y2="563.47321">
          <stop
             offset="0"
             style="stop-color:#FFFFFF"
             id="stop95" />
          <stop
             offset="0.1111"
             style="stop-color:#CBCBCB"
             id="stop97" />
          <stop
             offset="0.2396"
             style="stop-color:#969696"
             id="stop99" />
          <stop
             offset="0.3698"
             style="stop-color:#686868"
             id="stop101" />
          <stop
             offset="0.4991"
             style="stop-color:#424242"
             id="stop103" />
          <stop
             offset="0.6273"
             style="stop-color:#252525"
             id="stop105" />
          <stop
             offset="0.7542"
             style="stop-color:#111111"
             id="stop107" />
          <stop
             offset="0.8792"
             style="stop-color:#040404"
             id="stop109" />
          <stop
             offset="1"
             style="stop-color:#000000"
             id="stop111" />
          <a:midPointStop
             offset="0"
             style="stop-color:#FFFFFF" />
          <a:midPointStop
             offset="0.2994"
             style="stop-color:#FFFFFF" />
          <a:midPointStop
             offset="1"
             style="stop-color:#000000" />
        </linearGradient>
        <ellipse
           style="fill:url(#XMLID_3_)"
           sodipodi:ry="123.604"
           sodipodi:rx="160.94"
           sodipodi:cy="495.62299"
           sodipodi:cx="194.76401"
           i:knockout="Off"
           cx="194.76401"
           cy="495.62299"
           rx="160.94"
           ry="123.604"
           id="ellipse113" />
      </g>
    </mask>
    <filter
       color-interpolation-filters="sRGB"
       id="Adobe_OpacityMaskFilter_2_"
       filterUnits="userSpaceOnUse"
       x="101.57"
       y="425.034"
       width="156.907"
       height="127.553">
      <feColorMatrix
         type="matrix"
         values="1 0 0 0 0  0 1 0 0 0  0 0 1 0 0  0 0 0 1 0"
         id="feColorMatrix89" />
    </filter>
    <mask
       maskUnits="userSpaceOnUse"
       x="191.541"
       y="217.631"
       width="447.197"
       height="527.73"
       id="XMLID_10_"
       i:invertMask="false"
       i:clipMask="true">
      <g
         style="filter:url(#Adobe_OpacityMaskFilter_3_)"
         id="g165">
        <radialGradient
           id="XMLID_11_"
           cx="657.2124"
           cy="155.23289"
           r="606.95343"
           fx="657.2124"
           fy="155.23289"
           gradientTransform="matrix(0.931,0,0,0.9299,28.7459,21.6629)"
           gradientUnits="userSpaceOnUse">
          <stop
             offset="0"
             style="stop-color:#C9C9C8"
             id="stop168" />
          <stop
             offset="0.0881"
             style="stop-color:#C4C4C4"
             id="stop170" />
          <stop
             offset="0.2192"
             style="stop-color:#B8B8B7"
             id="stop172" />
          <stop
             offset="0.3769"
             style="stop-color:#A1A0A0"
             id="stop174" />
          <stop
             offset="0.5556"
             style="stop-color:#7F7F7E"
             id="stop176" />
          <stop
             offset="0.7517"
             style="stop-color:#4F4F4E"
             id="stop178" />
          <stop
             offset="0.9595"
             style="stop-color:#121212"
             id="stop180" />
          <stop
             offset="1"
             style="stop-color:#000000"
             id="stop182" />
          <a:midPointStop
             offset="0"
             style="stop-color:#C9C9C8" />
          <a:midPointStop
             offset="0.6215"
             style="stop-color:#C9C9C8" />
          <a:midPointStop
             offset="1"
             style="stop-color:#000000" />
        </radialGradient>
        <circle
           style="fill:url(#XMLID_11_)"
           sodipodi:ry="302.95401"
           sodipodi:rx="302.95401"
           sodipodi:cy="444.22601"
           sodipodi:cx="408.427"
           i:knockout="Off"
           cx="408.427"
           cy="444.22601"
           r="302.95401"
           id="circle184" />
      </g>
    </mask>
    <filter
       color-interpolation-filters="sRGB"
       id="Adobe_OpacityMaskFilter_3_"
       filterUnits="userSpaceOnUse"
       x="191.541"
       y="217.631"
       width="447.19699"
       height="527.72998">
      <feColorMatrix
         type="matrix"
         values="1 0 0 0 0  0 1 0 0 0  0 0 1 0 0  0 0 0 1 0"
         id="feColorMatrix162" />
    </filter>
    <mask
       maskUnits="userSpaceOnUse"
       x="243.061"
       y="279.317"
       width="252.506"
       height="187.183"
       id="XMLID_13_"
       i:invertMask="false"
       i:clipMask="true">
      <g
         style="filter:url(#Adobe_OpacityMaskFilter_4_)"
         id="g199">
        <linearGradient
           id="XMLID_14_"
           gradientUnits="userSpaceOnUse"
           x1="340.0488"
           y1="266.93359"
           x2="372.38071"
           y2="417.81519">
          <stop
             offset="0"
             style="stop-color:#FFFFFF"
             id="stop202" />
          <stop
             offset="0.0867"
             style="stop-color:#F8F8F8"
             id="stop204" />
          <stop
             offset="0.2156"
             style="stop-color:#E4E4E4"
             id="stop206" />
          <stop
             offset="0.3708"
             style="stop-color:#C2C2C2"
             id="stop208" />
          <stop
             offset="0.5465"
             style="stop-color:#949494"
             id="stop210" />
          <stop
             offset="0.7394"
             style="stop-color:#595959"
             id="stop212" />
          <stop
             offset="0.9438"
             style="stop-color:#151515"
             id="stop214" />
          <stop
             offset="0.9944"
             style="stop-color:#000000"
             id="stop216" />
          <a:midPointStop
             offset="0"
             style="stop-color:#FFFFFF" />
          <a:midPointStop
             offset="0.6215"
             style="stop-color:#FFFFFF" />
          <a:midPointStop
             offset="0.9944"
             style="stop-color:#000000" />
        </linearGradient>
        <ellipse
           style="fill:url(#XMLID_14_)"
           sodipodi:ry="183.32201"
           sodipodi:rx="215.32401"
           sodipodi:cy="374.28201"
           sodipodi:cx="363.052"
           i:knockout="Off"
           cx="363.052"
           cy="374.28201"
           rx="215.32401"
           ry="183.32201"
           id="ellipse218" />
      </g>
    </mask>
    <filter
       color-interpolation-filters="sRGB"
       id="Adobe_OpacityMaskFilter_4_"
       filterUnits="userSpaceOnUse"
       x="243.061"
       y="279.31699"
       width="252.506"
       height="187.183">
      <feColorMatrix
         type="matrix"
         values="1 0 0 0 0  0 1 0 0 0  0 0 1 0 0  0 0 0 1 0"
         id="feColorMatrix196" />
    </filter>
  </defs>
  <metadata
     id="metadata7">
    <rdf:RDF>
      <cc:Work
         rdf:about="">
        <dc:format>image/svg+xml</dc:format>
        <dc:type
           rdf:resource="http://purl.org/dc/dcmitype/StillImage" />
        <dc:title />
      </cc:Work>
    </rdf:RDF>
  </metadata>
  <g
     transform="translate(8.4852817,-1016.6949)"
     id="klipper"
     inkscape:groupmode="layer"
     inkscape:label="Layer 1">
    <path
       sodipodi:nodetypes="cccccccccsccccccc"
       style="color:#000000;fill:#27303a;fill-opacity:0.753280819999999968;fill-rule:nonzero;stroke:none;stroke-width:2;marker:none;visibility:visible;display:inline;overflow:visible;enable-background:accumulate"
       id="path3078"
       d="m 3.5130256,1019.6932 c -0.7531281,1.8465 -1.2253517,3.0927 -2.0201164,4.8185 l 2.1521457,2.3552 -2.80035085,-0.992 c -1.15093617,2.359 -2.93544615,5.7224 -6.32998155,11.8217 2.8532003,-1.6472 5.06495064,-2.6627 7.1261956,-3.0502 -0.088511,-0.3807 -0.1388325,-0.7924 -0.1354146,-1.2221 l 0.00339,-0.091 c 0.045273,-1.828 0.9961821,-3.2337 2.1226246,-3.1383 1.1264428,0.095 2.0020144,1.6556 1.9567416,3.4836 -0.00852,0.3439 -0.047313,0.6748 -0.1151025,0.9817 2.0388659,0.3989 4.2269662,1.4118 7.0415618,3.0367 -0.474861,-0.8742 -1.031079,-1.9247 -1.442022,-2.6872 l -3.3141589,-2.5258 2.1213456,0.3099 c -3.411019,-6.5392 -4.7592242,-9.3276 -6.3668534,-13.1003 z"
       inkscape:connector-curvature="0" />
    <path
       style="font-size:medium;font-style:normal;font-variant:normal;font-weight:normal;font-stretch:normal;text-indent:0;text-align:start;text-decoration:none;line-height:normal;letter-spacing:normal;word-spacing:normal;text-transform:none;direction:ltr;block-progression:tb;writing-mode:lr-tb;text-anchor:start;baseline-shift:baseline;color:#000000;fill:#f1f3f5;fill-opacity:0.90288714000000003;fill-rule:nonzero;stroke:none;stroke-width:2;marker:none;visibility:visible;display:inline;overflow:visible;enable-background:accumulate;font-family:Sans;-inkscape-font-specification:Sans"
       d="M 13.125,2.53125 12.03125,-0.75 l -1.125,3.3125 c -0.758187,1.8589 -1.2215009,3.0595 -2,4.75 L 8.75,7.6875 8.5625,8.03125 8.28125,8.65625 C 7.1475541,10.97985 5.3590303,14.3458 1.96875,20.4375 l -2.125,3.78125 L 3.625,22.0625 C 6.4305965,20.4428 8.5346946,19.471 10.375,19.125 L 11.59375,18.90625 11.3125,17.6875 c -0.06577,-0.2829 -0.09365,-0.58805 -0.09375,-0.90625 l 0,-0.03125 0,-0.0625 c 0.01768,-0.7137 0.214522,-1.32665 0.4375,-1.65625 0.222978,-0.3297 0.333913,-0.3159 0.375,-0.3125 0.04086,0 0.241331,0.06395 0.46875,0.46875 0.227419,0.405 0.392687,1.06715 0.375,1.78125 -0.0068,0.2728 -0.0131,0.5264 -0.0625,0.75 l -0.28125,1.1875 1.21875,0.25 c 1.821976,0.3564 3.887869,1.30805 6.65625,2.90625 l 3.6875,2.125 -2.03125,-3.75 C 21.592499,19.5722 21.039777,18.5196 20.625,17.75 L 20.53125,17.625 20.5,17.53125 20.46875,17.5 19.4375,15.5625 C 16.031209,9.0324 14.721372,6.27745 13.125,2.53125 z M 12,3 c 1.607629,3.7727 2.963981,6.55455 6.375,13.09375 l -2.125,-0.3125 3.3125,2.53125 C 19.973443,19.075 20.525139,20.1258 21,21 c -2.814596,-1.6249 -4.992384,-2.63235 -7.03125,-3.03125 0.06779,-0.3069 0.08523,-0.6561 0.09375,-1 C 14.107773,15.14075 13.251443,13.595 12.125,13.5 10.998557,13.4046 10.045273,14.797 10,16.625 l 0,0.09375 c -0.00342,0.4297 0.03649,0.83805 0.125,1.21875 C 8.063755,18.325 5.8532003,19.3528 3,21 6.3945354,14.9007 8.1928138,11.5465 9.34375,9.1875 l 2.78125,1 -2.15625,-2.375 C 10.763515,6.0867 11.246872,4.8465 12,3 z"
       transform="translate(-8.4852817,1016.6949)"
       id="path2518"
       inkscape:connector-curvature="0"
       sodipodi:nodetypes="ccccccccccccccccccccccccccccccccccccccsccccccccc" />
  </g>
</svg>

<?xml version="1.0" encoding="UTF-8"?>
<svg width="24" height="24" version="1.1" xmlns="http://www.w3.org/2000/svg" xmlns:cc="http://creativecommons.org/ns#" xmlns:dc="http://purl.org/dc/elements/1.1/" xmlns:rdf="http://www.w3.org/1999/02/22-rdf-syntax-ns#">
	<defs>
		<style id="current-color-scheme" type="text/css">.ColorScheme-Text {color:#090d11;}.ColorScheme-Background{color:#ffffff;}</style>
	</defs>
	<metadata>
		<rdf:RDF>
			<cc:Work rdf:about="">
				<dc:format>image/svg+xml</dc:format>
				<dc:type rdf:resource="http://purl.org/dc/dcmitype/StillImage"/>
			</cc:Work>
		</rdf:RDF>
	</metadata>
	<path class="ColorScheme-Text" d="m11.998 2.998c-0.75313 1.8465-1.2248 3.0926-2.0195 4.8184l2.1523 2.3555-2.8008-0.99219c-1.1509 2.359-2.9355 5.723-6.3301 11.822 2.8532-1.6472 5.0657-2.6633 7.127-3.0508-0.08851-0.3807-0.14014-0.79296-0.13672-1.2227l0.00391-0.08984c0.04527-1.828 0.9966-3.2341 2.123-3.1387 1.1264 0.095 2.0023 1.6564 1.957 3.4844-0.0085 0.3439-0.04744 0.67357-0.11524 0.98047 2.0389 0.3989 4.2264 1.4122 7.041 3.0371-0.47486-0.8742-1.0305-1.925-1.4414-2.6875l-3.3145-2.5254 2.1211 0.31055c-3.411-6.5392-4.7596-9.3289-6.3672-13.102z" style="fill-opacity:.75;fill:currentColor"/>
	<path class="ColorScheme-Background" d="m12.031-0.75-1.125 3.3125c-0.75819 1.8589-1.2215 3.0595-2 4.75l-0.15625 0.375-0.1875 0.34375-0.28125 0.625c-1.1337 2.3236-2.9222 5.6896-6.3125 11.781l-2.125 3.7812 3.7812-2.1562c2.8056-1.6197 4.9097-2.5915 6.75-2.9375l1.2188-0.21875-0.28125-1.2188c-0.06577-0.2829-0.09365-0.58805-0.09375-0.90625v-0.09375c0.01768-0.7137 0.21452-1.3266 0.4375-1.6562 0.22298-0.3297 0.33391-0.3159 0.375-0.3125 0.04086 0 0.24133 0.06395 0.46875 0.46875 0.22742 0.405 0.39269 1.0672 0.375 1.7812-0.0068 0.2728-0.0131 0.5264-0.0625 0.75l-0.28125 1.1875 1.2188 0.25c1.822 0.3564 3.8879 1.308 6.6562 2.9062l3.6875 2.125-2.0312-3.75c-0.47-0.8653-1.0227-1.9179-1.4375-2.6875l-0.09375-0.125-0.03125-0.09375-0.03125-0.03125-1.0312-1.9375c-3.4063-6.5301-4.7161-9.285-6.3125-13.031zm-0.03125 3.75c1.6076 3.7727 2.964 6.5546 6.375 13.094l-2.125-0.3125 3.3125 2.5312c0.41094 0.7625 0.96264 1.8133 1.4375 2.6875-2.8146-1.6249-4.9924-2.6324-7.0312-3.0312 0.06779-0.3069 0.08523-0.6561 0.09375-1 0.045273-1.828-0.81106-3.3738-1.9375-3.4688-1.1264-0.0954-2.0797 1.297-2.125 3.125v0.09375c-0.00342 0.4297 0.03649 0.83805 0.125 1.2188-2.0612 0.3875-4.2718 1.4153-7.125 3.0625 3.3945-6.0993 5.1928-9.4535 6.3438-11.812l2.7812 1-2.1562-2.375c0.79476-1.7258 1.2781-2.966 2.0312-4.8125z" style="fill-opacity:.5;fill:currentColor"/>
</svg>
